dist/icons/svgs/eye-slash-solid.svg

<svg xmlns="http://www.w3.org/2000/svg" width="24" height="24" fill="currentcolor" class="icon-eye-slash-solid" viewBox="0 0 24 24">
  <path d="M2.48459 2.2344L6.85959 5.63284C8.6174 4.30472 10.8049 3.25003 13.5002 3.25003C16.6252 3.25003 19.1643 4.69534 21.0002 6.41409C22.8361 8.09378 24.0471 10.125 24.633 11.5313C24.7502 11.8438 24.7502 12.1953 24.633 12.5078C24.1252 13.7578 23.0705 15.5547 21.508 17.1172L25.6096 20.3594C26.0393 20.6719 26.1174 21.2578 25.7658 21.6485C25.4533 22.0782 24.8674 22.1563 24.4768 21.8047L1.35177 3.67972C0.922087 3.36722 0.843962 2.78128 1.19552 2.39065C1.50802 1.96097 2.09396 1.88284 2.48459 2.2344ZM9.71115 7.8594L13.2268 10.6328C13.383 10.2813 13.5002 9.92972 13.5002 9.53909C13.5002 9.22659 13.4221 8.99222 13.344 8.71878C13.3049 8.52347 13.4221 8.25003 13.6565 8.28909C15.258 8.32815 16.6643 9.4219 17.094 11.0625C17.3283 11.9219 17.2502 12.7813 16.9377 13.5235L18.4221 14.6953C18.8518 13.9141 19.1252 12.9766 19.1252 12C19.1252 8.91409 16.5861 6.37503 13.5002 6.37503C12.0158 6.37503 10.6877 6.96097 9.71115 7.8594ZM15.5705 17.2344L18.4221 19.5C16.9768 20.2813 15.3361 20.75 13.5002 20.75C10.3361 20.75 7.79709 19.3438 5.96115 17.625C4.12521 15.9063 2.91427 13.875 2.32834 12.5078C2.21115 12.1953 2.21115 11.8438 2.32834 11.5313C2.71896 10.6328 3.34396 9.50003 4.2424 8.32815L7.91427 11.2188C7.87521 11.4922 7.87521 11.7657 7.87521 12C7.87521 15.125 10.3752 17.625 13.5002 17.625C14.2033 17.625 14.9065 17.5078 15.5705 17.2344Z"/>
</svg>

<svg xmlns="http://www.w3.org/2000/svg" width="24" height="24" fill="currentColor" class="icon-eye-slash-solid" viewBox="0 0 24 24">
  <path d="M2.485 2.234 6.86 5.633C8.617 4.305 10.805 3.25 13.5 3.25c3.125 0 5.664 1.445 7.5 3.164 1.836 1.68 3.047 3.711 3.633 5.117a1.4 1.4 0 0 1 0 .977c-.508 1.25-1.562 3.047-3.125 4.61l4.102 3.241c.43.313.507.899.156 1.29-.313.43-.899.507-1.29.156L1.353 3.68c-.43-.313-.508-.899-.156-1.29.312-.429.898-.507 1.289-.156M9.71 7.86l3.516 2.774c.156-.352.273-.703.273-1.094 0-.312-.078-.547-.156-.82-.04-.196.078-.469.313-.43 1.601.04 3.007 1.133 3.437 2.774a3.77 3.77 0 0 1-.156 2.46l1.484 1.172c.43-.78.703-1.718.703-2.695 0-3.086-2.539-5.625-5.625-5.625A5.6 5.6 0 0 0 9.71 7.86m5.86 9.375 2.851 2.266a10.2 10.2 0 0 1-4.922 1.25c-3.164 0-5.703-1.406-7.539-3.125s-3.047-3.75-3.633-5.117a1.4 1.4 0 0 1 0-.977 15.6 15.6 0 0 1 1.914-3.203l3.672 2.89c-.039.274-.039.548-.039.782 0 3.125 2.5 5.625 5.625 5.625a5.4 5.4 0 0 0 2.07-.39"/>
</svg>
